X:1
T:Title
%%score { ( 1 4 5 ) | ( 2 3 ) }
L:1/8
M:3/4
K:F
V:1 treble nm="Grand Piano"
V:4 treble 
V:5 treble 
V:2 treble 
V:3 treble 
V:1
 z2 z[Q:1/4=88] c Ad | [Ac]3 [FA] [CA]G | [A,F]3 A Bc | [Bd]3 [Bd] [Ac]A | [EG]3 [EG] AB | %5
 [Be]3 [Bd] [Ac][GB] | [FA]3 A =BA | CC Cc de |[M:7/16] [Ec]/-[Ec]/-[Ec]/-[Ec]-<[Ec] |[M:3/8] cdc | %10
[M:3/4] [GB]4 z2 | [FA]4 z2 | [Bd]3 [Bd] [FAc][CFA] | [EG]4 z2 | F4 z2 | d3 d [Fe][Fd] | %16
 .F2 z2 z2[Q:1/4=85][Q:1/4=83][Q:1/4=80][Q:1/4=77][Q:1/4=74][Q:1/4=72][Q:1/4=69] |[M:3/8] [A,F]3 |] %18
V:2
 z2 z A FB | F,C A,F, z B, | F,,C, F,,[K:treble]F GA | B,,D, F,B, C[K:treble]F | %4
 C[K:bass]G, E,C,[K:treble] FG | C,G, E,C, D,E, | F,C A,[F,F] _EE | G,G, G,[K:treble]E FF | %8
[M:7/16][K:bass] C,C,C,3/2 |[M:3/8][K:treble] ABA |[M:3/4][K:bass] C,C, z G [C,C]2 | %11
 [F,C]F, F,[K:treble]F GA | B,,D, F,B, F,F, | C,C, C,[C,E,] [C,F,C][C,B,C] | %14
 C-[F,C-] [F,C][F,A,] [F,CF][F,A,_E] | [B,,B,][B,,B,] z F [=B,,_A,]2 | [C,A,]C, C,C, C,C, | %17
[M:3/8] F,3 |] %18
V:3
 x6 | z2 z2 C,2 | x3[K:treble] x3 | x5[K:treble] x | x[K:bass] x3[K:treble] x2 | x6 | %6
 z2 z2 [^F,C]2 | z2 z2[K:treble] [G,=B,]2 |[M:7/16][K:bass] x7/2 |[M:3/8][K:treble] x3 | %10
[M:3/4][K:bass] z2 C,2 z2 | x3[K:treble] x3 | x6 | x6 | .[F,A,]2 z2 z2 | z2 B,,2 z2 | x6 | %17
[M:3/8] x3 |] %18
V:4
 x6 | x6 | x6 | x6 | x6 | x6 | x6 | [EG]4 z2 |[M:7/16] CG,G,3/2 |[M:3/8] x3 | %10
[M:3/4] CC z B [Ac][GB] | z C CA Bc | F2 F2 z2 | CC CC AG | z A, A,F Ac | D .F3 z2 | %16
 c-[B,Gc-] [A,Fc][CFA] [DFB][B,EG] |[M:3/8] x3 |] %18
V:5
 x6 | x6 | x6 | x6 | x6 | x6 | x6 | x6 |[M:7/16] x7/2 |[M:3/8] x3 |[M:3/4] z2 C2 z2 | x6 | x6 | %13
 x6 | x6 | z2 B,2 z2 | x6 |[M:3/8] x3 |] %18

